src/DGGeoclicker/skin/light/img/DGFirmCard__phoneIcon_light.svg

<svg xmlns="http://www.w3.org/2000/svg" width="10" height="10"><path fill-rule="evenodd" clip-rule="evenodd" fill="#666" d="M9.18 8.985c-.508.506-1.135.823-1.789.95-1.235-.159-2.384-.581-3.394-1.211l-2.706-2.697c-.652-1.039-1.089-2.226-1.24-3.504.137-.624.443-1.221.931-1.706l.819-.817 2.185 2.177v.549l-.545.542c-.453.451-.453 1.183 0 1.634l1.639 1.633c.453.451 1.188.451 1.641 0l.522-.521h.595l2.162 2.155-.82.816z"/></svg>

<svg xmlns="http://www.w3.org/2000/svg" width="10" height="10">
    <path d="M 9.18,8.985 C 8.672,9.491 8.045,9.808 7.391,9.935 6.156,9.776 5.007,9.354 3.997,8.724 L 1.291,6.027 C 0.639,4.988 0.202,3.801 0.051,2.523 0.188,1.899 0.494,1.302 0.982,0.817 L 1.801,0 3.986,2.177 V 2.726 L 3.441,3.268 c -0.453,0.451 -0.453,1.183 0,1.634 L 5.08,6.535 c 0.453,0.451 1.188,0.451 1.641,0 L 7.243,6.014 H 7.838 L 10,8.169 9.18,8.985 z" fill="#666" fill-rule="evenodd"/>
</svg>
